X:1
T:Blue Skirt Waltz
C:Arranged by J & S Skaryd
M:3/4
L:1/4
K:G
V:1
|"G"D3|"G"D "A7"E "D7"F|"G"G2 D|B,2 B,|D D D|"G"B, "D7"C E
w:I wan-dered a- lone one night, till I heard an or-ches-tra
|"G"D3|"D7"C "Em7"B, "D7"A,|"G"D3|"G"D "A7"E "D7"F|"G"G2 D|B,2 D
w:play. | | I met you when lights were bright, and
|D G B|"D7"A A F|"G"G3|G F =F|"C"E E E|E F G
w:peo-ple were care-free and gay. | | You were the beau-ti-ful
|E G G|E3|"G"D D D|"G"B G "D7"A|"G"B B "C"c|"G"B3|D3
w:la-dy in blue. I was in heav-en just walt-zing with you. You
|"G"D "A7"E "D7"F|"G"G2 "F"=F|"C"E2 E|"Am"E A "Cm"c|"Bm"B2 "D7"A|"G"G3-|G z2||
w:thrilled me with strange de-light, then soft-ly you stole a-way. | |
K:C
|"C"E3|E ^D E|"F"F2 ^D|"C"E3|C E E|C2 "G7"A
w:I dream of that night with you. La-dy, when first we
|G3-|G3|B3|B _B =B|"F"A2 G|"G7"G3
w:met. | | We danced in a world of blue.
|G B, D|G2 F|"C"E3-|E3| "F"F F F|A2 A
w:How can my heart for-get? || Blue were the skies and
|A "A"^G "F"A|F3|"C"E E E|C C "G7"D|"C"E3-|E3|E3
w:blue were your eyes, just like the blue skirt you wore. | | Come
|C2 "G7"D|"C"E C "F"A|"G7"G3|"F6"F2 F|"Em"E E "G7"D|"C"C3-|C z2||
w:back, blue lal-dy, come back, don't be blue an-y more. ||


